!!!OTL: 174c. Das Maedchen und die Hasel.
!!!ARE: Europa, Mitteleuropa, Deutschland, Schlesien
!!!SCT: E0174
!!!TXL: @@DE
!!!YEM: Copyright 1995, estate of Helmut Schaffrath.
**kern	**text
*ICvox	*
*M3/4	*
*k[f#]	*
*G:	*
!LO:TX:a:t=Mäßig.	!
!LO:TX:a:t=Aus Schlefien.	!
{8d	Es
=1	=1
8d	wollt
8g	ein
4g	Mädl
4g	ʒum
=2	=2
8f#	Tan-
8g	-ʒe
4.a}	gehn,
{8a	ſie
=3	=3
8g	ſchmückt
8g	ſich
4g	wun-
4a	-der-
=4	=4
(16ccqq	.
4b/)	-ſchö-
4a	-ne.
8r}	.
{8g	Was
=5	=5
8b	fand
8a	ſie
4b	an
4dd	dem
=6	=6
8cc	We-
8b	-ge
4a}	ſtehn?
{4a	ein'
=7	=7
8g	Ha-
8g	-ſel
4cc	die
4b	war
=8	=8
(16bqq	.
4a)	grü-
4g	-ne.
8r}	.
==	==
!!!AGN: erzaehlendes Volks - Lied, Sage, Pflanzen - Maerchen, Moral - Lied
!!!ONB: ESAC (Essen Associative Code) Database: ERK1
!!!AMT: simple triple
!!!AIN: vox
!!!EED: Helmut Schaffrath
!!!EEV: 1.0
!!!GTL: Thiersage und Pflanzenmaerchen
!!!URL-scan: https://rosdok.uni-rostock.de/mcrviewer/recordIdentifier/rosdok_ppn745146120/iview2/phys_0601.iview2?x=-128.7727644188933&y=1377.6545935450122&scale=0.5870222003877484&rotation=0&layout=singlePageLayout
!!!ENC: Anna Maria Matuszewska
!!!EEV: 2024/04/12
*-	*-
